X: 193
M: C|
L: 1/8
K: G
d4 e4 | dcBc d2g2 | G4 TA4 | BAGF G2d2 |\
edcd e2g2 | dcBc d2g2 | c4 TB3c | {B2}TA6 :|
|: fg |\
a4 d4 | ^c4 d2fg | a4 d4 | ^cdec A2A2 |\
d2 (d/e/f) e2 (e/f/g) | f2 (f/g/a) g2 (g/a/b) | a2d2 {f}e2d^c | {^c2}d6 g2 |
edcd e2g2 | dcBc d2g2 | c4 TB4 | AGFE D2D2 |\

